X:1
T:I’ve Waited Too Long to Prepare
T:I’ve Waited Too Long to Prepare
T:James Henry Stanley
T:Birdie May Stillman, 1910
T:Public Domain Courtesy of the Cyber Hymnal™
T:Public Domain Courtesy of the Cyber Hymnal™
C:James Henry Stanley
Z:Public Domain
Z:Courtesy of the Cyber Hymnal™
%%score ( 1 2 ) ( 3 4 )
L:1/8
Q:1/4=88
M:6/8
K:Bb
V:1 treble 
V:2 treble 
V:3 bass 
V:4 bass 
V:1
 ([B,D]/[CE]/) | [DF]2 [DF] [EG]2 [DF] | ([Fd]>[=E^c])[Fd] [DB]2 [FB] | %3
w: 1.~Dear *|friends, I have a|story * to tell, A|
w: 2.~I’ve *|heard the sto- ry|of * Christ’s love, The|
w: 3.~When *|friends would plead with|me * to come, I|
w: 4.~Too *|long the Sav- ior’s|pointed * the way, And|
w: 5.~O *|sin- ner, hear this|message * to you, ’Tis|
 [EB]>[EA][EB] [Gc][GB][EG] | [DF]3- [DF]2 ([B,D]/[CE]/) | [DF]2 [DF] [EG]2 [DF] | %6
w: sto- ry of woe, and des-|pair; * My *|soul is doomed with|
w: ci- ty so bright and so|fair; * They *|bade me live for|
w: turned them a- way with- out|care; * And *|now thro’ mist and|
w: of- fered my bur- dens to|share; * A- *|las, I’ve turned His|
w: filled with the words of des-|pair; * And *|heed the call of|
 [FB][FB][Fc] !fermata![Fd][Fd][Ec] | [DB]<!fermata![DB][FB] !fermata![Ec][DB][CA] | %8
w: de- mons to dwell— I have|wait- ed too long to pre-|
w: Hea- ven a- bove, But I’ve|wait- ed too long to pre-|
w: dark- ness I see, I have|wait- ed too long to pre-|
w: kind- ness a- way! Thus I’ve|wait- ed too long to pre-|
w: warn- ing to- day— You are|wait- ing too long to pre-|
 [DB]3- [DB]2 ||"^Refrain" ([B,D]/[CE]/) | [DF]<[DF][DF] F3- | F3- !fermata![DF]2 [DF] | %12
w: pare. *||||
w: pare. *||||
w: pare. *|I’ve *|wait- ed too long,|* I’ve wait-|
w: pare. *||||
w: pare. *||||
 [DB]<[DB][DB] [GB][GB][Gc] | [^Fd]3- [Fd]2 [D=F] | [Fd]>[=E^c][Fd] [DB]2 [FB]/[FB]/ | %15
w: |||
w: |||
w: * ed too long to pre-|pare. * I’ve|an- chored my soul to the|
w: |||
w: |||
 (cB)[EG] [DF]2 [DF] | [DF][FB][Gc] !fermata![Fd]2 [DB]/[Ec]/ | [DB]3- [DB]2 |] %18
w: |||
w: |||
w: sin * cursed shore, I’ve|wait- ed too long to pre-|pare. *|
w: |||
w: |||
V:2
 x | x6 | x6 | x6 | x6 | x6 | x6 | x6 | x5 || x | x3 D2 D | CDE x3 | x6 | x6 | x6 | G2 x4 | x6 | %17
 x5 |] %18
V:3
 [B,,F,] | [B,,B,]2 [B,,B,] [B,,B,]2 [B,,B,] | ([B,,B,]>[B,,B,])[B,,B,] [B,,F,]2 [D,B,] | %3
w: |||
 [E,G,]>[E,G,][E,G,] [E,B,][E,B,][E,B,] | [B,,B,]3- [B,,B,]2 [B,,F,] | %5
w: ||
 [B,,B,]2 [B,,B,] [B,,B,]2 [B,,B,] | [D,B,][D,B,][F,A,] !fermata!B,B,[F,A,] | %7
w: |* * * I’ve waited *|
 [G,B,]<!fermata![G,B,][D,B,] !fermata![F,A,]F,F, | [B,,F,]3- [B,,F,]2 || [B,,F,] | %10
w: * * * * too long,|||
 [B,,B,]<[B,,B,][B,,B,] [B,,B,]2 [B,,B,] | [F,A,][F,B,][F,C] !fermata![B,,B,]2 [B,,B,] | %12
w: ||
 [G,B,]<[G,B,][G,B,] [G,D][G,D][E,C] | [D,A,]3- [D,A,]2 [B,,B,] | %14
w: ||
 [B,,B,]>[B,,B,][B,,B,] [B,,F,]2 [D,B,]/[D,B,]/ | [E,B,]2 [E,B,] [B,,B,]2 [B,,B,] | %16
w: ||
 [B,,B,][D,B,][E,B,] !fermata![F,B,]2 [F,B,]/[F,A,]/ | [B,,B,]3- [B,,B,]2 |] %18
w: ||
V:4
 x | x6 | x6 | x6 | x6 | x6 | x3 B,B, x | x4 F,F, | x5 || x | x6 | x6 | x6 | x6 | x6 | x6 | x6 | %17
 x5 |] %18

